assets/icons/utility/cases.svg

<?xml version="1.0"?><svg xmlns="http://www.w3.org/2000/svg" width="52" height="52" viewBox="0 0 52 52"><g fill="#fff"><path d="m9 3.5c0-0.8-0.7-1.5-1.5-1.5h-4c-0.8 0-1.5 0.7-1.5 1.5v31c0 0.8 0.7 1.5 1.5 1.5h4c0.8 0 1.5-0.7 1.5-1.5v-31z m41 0c0-0.8-0.7-1.5-1.5-1.5h-4c-0.8 0-1.5 0.7-1.5 1.5v31c0 0.8 0.7 1.5 1.5 1.5h4c0.8 0 1.5-0.7 1.5-1.5v-31z m-12.5-1.5h-3c-0.8 0-1.5 0.8-1.5 1.6v12.4c0 0.4 0.2 0.7 0.6 0.9 1.7 0.9 3.2 2 4.5 3.3 0.3 0.3 0.9 0.1 0.9-0.3v-16.3c0-0.8-0.7-1.6-1.5-1.6z m-13.4 13.2c0.6-0.1 1.3-0.1 1.9-0.1s1.3 0 1.9 0.1 1.1-0.4 1.1-1v-10.6c0-0.8-0.7-1.6-1.5-1.6h-3c-0.8 0-1.5 0.8-1.5 1.6v10.6c0 0.6 0.5 1.1 1.1 1z m-10.2 5c1.3-1.4 2.9-2.5 4.6-3.3 0.3-0.2 0.5-0.5 0.5-0.9v-12.4c0-0.8-0.7-1.6-1.5-1.6h-3c-0.8 0-1.5 0.8-1.5 1.6v16.3c0 0.4 0.5 0.6 0.9 0.3z m12.1-1.1c-7.2 0-13 5.8-13 13 0 2.2 0.6 4.4 1.6 6.2l-7.1 7.1c-0.6 0.6-0.6 1.5 0 2.1l2.1 2.1c0.6 0.6 1.5 0.6 2.1 0l6.9-6.9c2.1 1.5 4.7 2.4 7.4 2.4 7.2 0 13-5.8 13-13s-5.8-13-13-13z m0 20c-3.9 0-7-3.1-7-7s3.1-7 7-7 7 3.1 7 7-3.1 7-7 7z"></path></g></svg>

<svg xmlns="http://www.w3.org/2000/svg" x="0px" y="0px"
	 width="52px" height="52px" viewBox="0 0 52 52" enable-background="new 0 0 52 52" xml:space="preserve">
<g>
	<path fill="#FFFFFF" d="M9,3.5C9,2.7,8.3,2,7.5,2h-4C2.7,2,2,2.7,2,3.5v31C2,35.3,2.7,36,3.5,36h4C8.3,36,9,35.3,9,34.5V3.5z"/>
	<path fill="#FFFFFF" d="M50,3.5C50,2.7,49.3,2,48.5,2h-4C43.7,2,43,2.7,43,3.5v31c0,0.8,0.7,1.5,1.5,1.5h4c0.8,0,1.5-0.7,1.5-1.5
		V3.5z"/>
	<path fill="#FFFFFF" d="M37.5,2h-3C33.7,2,33,2.8,33,3.6V16c0,0.4,0.2,0.7,0.6,0.9c1.7,0.9,3.2,2,4.5,3.3c0.3,0.3,0.9,0.1,0.9-0.3
		V3.6C39,2.8,38.3,2,37.5,2z"/>
	<path fill="#FFFFFF" d="M24.1,15.2c0.6-0.1,1.3-0.1,1.9-0.1s1.3,0,1.9,0.1s1.1-0.4,1.1-1V3.6C29,2.8,28.3,2,27.5,2h-3
		C23.7,2,23,2.8,23,3.6v10.6C23,14.8,23.5,15.3,24.1,15.2z"/>
	<path fill="#FFFFFF" d="M13.9,20.2c1.3-1.4,2.9-2.5,4.6-3.3c0.3-0.2,0.5-0.5,0.5-0.9V3.6C19,2.8,18.3,2,17.5,2h-3
		C13.7,2,13,2.8,13,3.6v16.3C13,20.3,13.5,20.5,13.9,20.2z"/>
	<path fill="#FFFFFF" d="M26,19.1c-7.2,0-13,5.8-13,13c0,2.2,0.6,4.4,1.6,6.2l-7.1,7.1c-0.6,0.6-0.6,1.5,0,2.1l2.1,2.1
		c0.6,0.6,1.5,0.6,2.1,0l6.9-6.9c2.1,1.5,4.7,2.4,7.4,2.4c7.2,0,13-5.8,13-13S33.2,19.1,26,19.1z M26,39.1c-3.9,0-7-3.1-7-7
		s3.1-7,7-7s7,3.1,7,7S29.9,39.1,26,39.1z"/>
</g>
</svg>
